newicons/coros.svg

<?xml version="1.0" encoding="UTF-8" standalone="no"?>
<svg
   viewBox="0 0 48 48"
   version="1.1"
   id="svg1"
   xml:space="preserve"
   xmlns="http://www.w3.org/2000/svg"
   xmlns:svg="http://www.w3.org/2000/svg"><defs
     id="defs1"><style
       id="style1">.a{fill:none;stroke:#fff;stroke-linecap:round;stroke-linejoin:round;}</style></defs><path
     style="fill:none;stroke:#ffffff;stroke-width:0.999999;stroke-linecap:round;stroke-linejoin:round;stroke-dashoffset:0.5"
     d="M 39.096012,12.643839 26.364092,5.4999918 14.344248,13.070762 13.831554,27.358458"
     id="path2" /><path
     style="fill:none;stroke:#ffffff;stroke-width:0.999999;stroke-linecap:round;stroke-linejoin:round;stroke-dashoffset:0.5"
     d="m 27.247066,11.619224 10.965972,7.456925 V 34.900768 L 27.417964,42.5"
     id="path3" /><path
     style="fill:none;stroke:#ffffff;stroke-width:0.999999;stroke-linecap:round;stroke-linejoin:round;stroke-dashoffset:0.5"
     d="M 33.940581,31.713075 21.578941,38.401538 9.2457835,31.086921 8.9039875,15.859994"
     id="path4" /></svg>

<?xml version="1.0" encoding="UTF-8"?><svg id="b" xmlns="http://www.w3.org/2000/svg" viewBox="0 0 48 48"><defs><style>.f{fill:none;stroke:#fff;stroke-linecap:round;stroke-linejoin:round;}</style></defs><path id="c" class="f" d="m39.096,12.6438l-12.7319-7.1438-12.0198,7.5708-.5127,14.2877"/><path id="d" class="f" d="m27.2471,11.6192l10.966,7.4569v15.8246l-10.7951,7.5992"/><path id="e" class="f" d="m33.9406,31.7131l-12.3616,6.6885-12.3332-7.3146-.3418-15.2269"/></svg>
